Numix-GalliumOS/32/actions/document-close.svg

<?xml version="1.0" encoding="UTF-8" standalone="no"?>
<svg
   xmlns:dc="http://purl.org/dc/elements/1.1/"
   xmlns:cc="http://creativecommons.org/ns#"
   xmlns:rdf="http://www.w3.org/1999/02/22-rdf-syntax-ns#"
   xmlns:svg="http://www.w3.org/2000/svg"
   xmlns="http://www.w3.org/2000/svg"
   xmlns:sodipodi="http://sodipodi.sourceforge.net/DTD/sodipodi-0.dtd"
   xmlns:inkscape="http://www.inkscape.org/namespaces/inkscape"
   width="32"
   height="32"
   viewBox="0 0 32 32"
   id="svg2"
   version="1.1"
   inkscape:version="0.91 r13725"
   sodipodi:docname="document-close2.svg">
  <metadata
     id="metadata12">
    <rdf:RDF>
      <cc:Work
         rdf:about="">
        <dc:format>image/svg+xml</dc:format>
        <dc:type
           rdf:resource="http://purl.org/dc/dcmitype/StillImage" />
        <dc:title></dc:title>
      </cc:Work>
    </rdf:RDF>
  </metadata>
  <defs
     id="defs10" />
  <sodipodi:namedview
     pagecolor="#ffffff"
     bordercolor="#666666"
     borderopacity="1"
     objecttolerance="10"
     gridtolerance="10"
     guidetolerance="10"
     inkscape:pageopacity="0"
     inkscape:pageshadow="2"
     inkscape:window-width="1366"
     inkscape:window-height="704"
     id="namedview8"
     showgrid="false"
     inkscape:zoom="14.75"
     inkscape:cx="10.80088"
     inkscape:cy="8.3296892"
     inkscape:window-x="0"
     inkscape:window-y="27"
     inkscape:window-maximized="1"
     inkscape:current-layer="svg2" />
  <path
     style="fill:#fff;fill-rule:evenodd"
     d="M 7.429688 0 L 24.570312 0 C 28 0 28 0 28 3.554688 L 28 28.445312 C 28 32 28 32 24.570312 32 L 7.429688 32 C 4 32 4 32 4 28.445312 L 4 3.554688 C 4 0 4 0 7.429688 0 Z "
     id="path4" />
  <path
     style="fill:#dc322f;fill-opacity:1"
     d="M 32,27.500001 27.500001,23 32,18.499999 27.500001,14 23,18.499999 18.499999,14 14,18.499999 18.499999,23 14,27.500001 18.499999,32 23,27.500001 27.500001,32 Z"
     id="path6"
     inkscape:connector-curvature="0" />
</svg>

<svg xmlns="http://www.w3.org/2000/svg" viewBox="0 0 32 32">
 <path d="M 7.429688 0 L 24.570312 0 C 28 0 28 0 28 3.554688 L 28 28.445312 C 28 32 28 32 24.570312 32 L 7.429688 32 C 4 32 4 32 4 28.445312 L 4 3.554688 C 4 0 4 0 7.429688 0 Z " style="fill:#fff;fill-rule:evenodd"/>
 <path d="m 32 27.5 -4.5 -4.5 4.5 -4.5 -4.5 -4.5 -4.5 4.5 -4.5 -4.5 -4.5 4.5 4.5 4.5 -4.5 4.5 4.5 4.5 4.5 -4.5 4.5 4.5" style="fill:#dc322f;fill-opacity:1"/>
</svg>
